X:1
T:Pols efter Tommy Gjers
R:Pols
M:3/4
L:1/8
K:A
|: a>+trill+a - a>e ce | f>+trill+f - f>e dd | c>+trill+c - c>A BB | B/c/c - c4 | 
a>+trill+a - a>e ce | f>+trill+f - f>e dd | c>+trill+c - c>A BB | B/A/A - A4 +fine+ :|
|: A>A -A>A G>G | G/F/F -  F>F E>E | A,/C/D - D2 F>F | F/E/E - E4 |
A>A -A>A G>G | G/F/F -  F>F E>E | A,/C/D - D2 F>F | F/E/E - E4 :|

